src/topics/icons/vultr.svg

<svg height="102" preserveAspectRatio="xMidYMid" viewBox="0 0 512 102" width="512" xmlns="http://www.w3.org/2000/svg"><path d="m31.7584486 5.18500086c-1.1312128-2.9088256-3.8784409-4.8480461-7.1104716-4.8480461 0 0 0 0-.1615975 0h-17.6145715c-3.55523584 0-6.302464 2.90882562-6.302464 6.30246402 0 3.39362772 2.9088256 6.30246362 6.302464 6.30246362h14.2209331l7.2720691 17.4529638 7.7568717 19.2305459h13.7361408z" fill="#1e88e5"/><path d="m104.297349.33697524c-2.424032 0-4.161248 1.43421442-5.4540584 4.34304002l-33.6333209 83.88133844-10.5040999-26.6642432h-4.9995469-8.433582l13.5846297 33.1282432c1.9392205 4.363264 5.0096435 6.6155523 8.8880845 6.6155523h3.0805299c3.878441 0 6.948864-2.2522883 8.8880845-6.6155523l35.2493355-85.64879316c.323205-.64641024.454512-1.626112.454512-3.08052992s-.636313-2.74722816-1.767526-4.0400384c-1.131203-1.29281024-2.929019-1.91901698-5.353042-1.91901698zm36.865352 0c-1.777623 0-3.252234.62620674-4.545045 1.91901698-1.29281 1.29281024-1.919017 2.91892224-1.919017 4.69654528v55.6010594c0 12.4433408 4.34304 22.2808064 13.231125 29.3912576 7.595274 6.1408256 16.998461 9.3930495 27.825766 9.3930495 10.665708 0 19.86689-3.0906367 27.623772-9.3930495 8.888085-7.1104512 13.433129-16.9479168 13.433129-29.3912576v-55.6010594c0-1.77762304-.67671-3.40373504-1.96952-4.69654528-1.292811-1.29281024-2.918933-1.91901698-4.696546-1.91901698-1.93922 0-3.383531.62620674-4.191539 1.91901698-1.29281 1.29281024-1.919017 2.91892224-1.919017 4.69654528v56.1059938c0 8.5649408-2.918932 15.1501824-8.736583 19.998208-5.332859 4.363264-11.796921 6.6661376-19.392195 6.6661376s-14.059336-2.3028736-19.392184-6.6661376c-5.817651-4.8480256-8.736584-11.4332672-8.736584-19.998208v-56.1059938c0-1.77762304-.626207-3.40373504-1.919017-4.69654528s-2.918932-1.91901698-4.696545-1.91901698zm192.002847 0c-1.777613 0-3.262331.63630338-4.393544 1.76751618-1.131203 1.1312128-1.767516 2.61592064-1.767516 4.39354368 0 1.7776128.636313 3.2118272 1.767516 4.3430396 1.29282 1.1312128 2.615931 1.7675161 4.393544 1.7675161h29.239787v82.9217997c0 1.7775616.626207 3.2017408 1.919017 4.4945405 1.131213 1.2928 2.767421 1.969565 4.545044 1.969565 1.777613 0 3.403736-.676765 4.696546-1.969565 1.29281-1.1312125 1.919017-2.7169789 1.919017-4.4945405v-82.9217997h29.088276c1.777623 0 3.211838-.6363033 4.34305-1.7675161 1.131203-1.29280984 1.81801-2.5654268 1.81801-4.3430396 0-1.77762304-.686807-3.26233088-1.81801-4.39354368-1.131212-1.1312128-2.565427-1.76751618-4.34305-1.76751618zm-76.306238.15141888c-1.777613 0-3.20173.67671042-4.494541 1.96952066-1.29281 1.29281024-1.96952 2.8684288-1.96952 4.6460416v85.64883412c0 2.4240128.797911 4.5348864 2.575523 6.3125504 1.777624 1.7776641 3.888538 2.5755651 6.312561 2.5755651h50.752993c1.777623 0 3.403735-.474727 4.696546-1.7675267 1.29281-1.1312128 1.919017-2.7169792 1.919017-4.4945408 0-1.777664-.626207-3.403776-1.919017-4.696576-1.292811-1.2928-2.918923-1.9695616-4.696546-1.9695616v.2020352h-46.561443v-81.81077972c0-1.7776128-.626207-3.35323136-1.919028-4.6460416-1.29281-1.29281024-2.918922-1.96952066-4.696545-1.96952066zm180.993751 0c-1.777623 0-3.403735.67671042-4.696545 1.96952066s-1.919017 2.8684288-1.919017 4.6460416v87.61829332c0 4.0400896 3.232031 7.1205893 7.272069 7.1205893s7.272069-3.2320517 7.272069-7.2720389v-31.2092672h28.583271c5.494456 0 10.019297-.1818624 12.928133 1.918976 3.070423 2.1008384 5.342945 5.1813376 7.120568 8.7365632 1.777613 3.7168128 2.575524 9.4031872 2.575524 17.3216768v3.8380544c0 1.9392512.686807 3.5653632 1.818009 4.696576 1.131213 1.1312127 2.706832 1.7675267 4.646052 1.7675267 1.939221 0 3.555236-.626279 4.848046-1.9190787 1.292811-1.2928 1.969521-2.7573248 1.969521-4.696576v-6.1105152c0-6.4641024-.979712-12.4836864-3.08053-17.9781632-2.908836-8.241664-8.10028-13.2210688-15.049144-14.9986304 6.464061-2.2624256 11.160606-5.807616 14.392637-10.6556211 3.070423-4.8480461 4.696545-10.0495974 4.696545-15.7056512 0-8.7264768-3.090626-15.675351-9.39309-21.00819926-6.787267-5.65605376-16.796467-8.08007682-30.047795-8.08007682zm8.080077 14.08963548h24.24023c9.534495 0 16.483359 1.4241075 21.00821 4.4945408 3.716834 2.7472281 5.504553 6.6357657 5.504553 11.9686144 0 5.6560537-2.43413 10.0192972-7.120568 12.9281228-4.686449 3.0704333-10.978806 4.5450445-18.735688 4.5450445h-24.896737z" fill="#2b2a29"/></svg>

<?xml version="1.0" encoding="UTF-8"?>
<svg width="512px" height="102px" viewBox="0 0 512 102" version="1.1" xmlns="http://www.w3.org/2000/svg" xmlns:xlink="http://www.w3.org/1999/xlink" preserveAspectRatio="xMidYMid">
	<g>
		<path d="M31.7584486,5.18500086 L31.7584486,5.18500086 C30.6272358,2.27617526 27.8800077,0.336954757 24.647977,0.336954757 C24.647977,0.336954757 24.647977,0.336954757 24.4863795,0.336954757 L24.4863795,0.336954757 L6.871808,0.336954757 L6.871808,0.336954757 L6.871808,0.336954757 C3.31657216,0.336954757 0.569344,3.24578038 0.569344,6.63941878 C0.569344,10.0330465 3.4781696,12.9418824 6.871808,12.9418824 L6.871808,12.9418824 L21.0927411,12.9418824 L28.3648102,30.3948462 L36.1216819,49.6253921 L49.8578227,49.6253921 L31.7584486,5.18500086 Z" fill="#1E88E5"></path>
		<path d="M104.297349,0.336975237 C101.873317,0.336975237 100.136101,1.77118966 98.8432906,4.68001526 L65.2099697,88.5613537 L54.7058698,61.8971105 L49.7063229,61.8971105 L41.2727409,61.8971105 L54.8573706,95.0253537 C56.7965911,99.3886177 59.8670141,101.640906 63.7454551,101.640906 L66.825985,101.640906 C70.704426,101.640906 73.774849,99.3886177 75.7140695,95.0253537 L110.963405,9.37656054 C111.28661,8.7301503 111.417917,7.75044854 111.417917,6.29603062 C111.417917,4.8416127 110.781604,3.54880246 109.650391,2.25599222 C108.519188,0.963181978 106.721372,0.336975237 104.297349,0.336975237 L104.297349,0.336975237 Z M141.162701,0.336975237 C139.385078,0.336975237 137.910467,0.963181978 136.617656,2.25599222 C135.324846,3.54880246 134.698639,5.17491446 134.698639,6.9525375 L134.698639,62.5535969 C134.698639,74.9969377 139.041679,84.8344033 147.929764,91.9448545 C155.525038,98.0856801 164.928225,101.337904 175.75553,101.337904 C186.421238,101.337904 195.62242,98.2472673 203.379302,91.9448545 C212.267387,84.8344033 216.812431,74.9969377 216.812431,62.5535969 L216.812431,6.9525375 C216.812431,5.17491446 216.135721,3.54880246 214.842911,2.25599222 C213.5501,0.963181978 211.923978,0.336975237 210.146365,0.336975237 C208.207145,0.336975237 206.762834,0.963181978 205.954826,2.25599222 C204.662016,3.54880246 204.035809,5.17491446 204.035809,6.9525375 L204.035809,63.0585313 C204.035809,71.6234721 201.116877,78.2087137 195.299226,83.0567393 C189.966367,87.4200033 183.502305,89.7228769 175.907031,89.7228769 C168.311757,89.7228769 161.847695,87.4200033 156.514847,83.0567393 C150.697196,78.2087137 147.778263,71.6234721 147.778263,63.0585313 L147.778263,6.9525375 C147.778263,5.17491446 147.152056,3.54880246 145.859246,2.25599222 C144.566436,0.963181978 142.940314,0.336975237 141.162701,0.336975237 L141.162701,0.336975237 Z M333.165548,0.336975237 C331.387935,0.336975237 329.903217,0.973278618 328.772004,2.10449142 C327.640801,3.23570422 327.004488,4.72041206 327.004488,6.4980351 C327.004488,8.2756479 327.640801,9.7098623 328.772004,10.8410747 C330.064824,11.9722875 331.387935,12.6085908 333.165548,12.6085908 L362.405335,12.6085908 L362.405335,95.5303905 C362.405335,97.3079521 363.031542,98.7321313 364.324352,100.024931 C365.455565,101.317731 367.091773,101.994496 368.869396,101.994496 C370.647009,101.994496 372.273132,101.317731 373.565942,100.024931 C374.858752,98.8937185 375.484959,97.3079521 375.484959,95.5303905 L375.484959,12.6085908 L404.573235,12.6085908 C406.350858,12.6085908 407.785073,11.9722875 408.916285,10.8410747 C410.047488,9.54826486 410.734295,8.2756479 410.734295,6.4980351 C410.734295,4.72041206 410.047488,3.23570422 408.916285,2.10449142 C407.785073,0.973278618 406.350858,0.336975237 404.573235,0.336975237 L333.165548,0.336975237 L333.165548,0.336975237 Z M256.85931,0.488394117 C255.081697,0.488394117 253.65758,1.16510454 252.364769,2.45791478 C251.071959,3.75072502 250.395249,5.32634358 250.395249,7.10395638 L250.395249,92.7527905 C250.395249,95.1768033 251.19316,97.2876769 252.970772,99.0653409 C254.748396,100.843005 256.85931,101.640906 259.283333,101.640906 L310.036326,101.640906 C311.813949,101.640906 313.440061,101.166179 314.732872,99.8733793 C316.025682,98.7421665 316.651889,97.1564001 316.651889,95.3788385 C316.651889,93.6011745 316.025682,91.9750625 314.732872,90.6822625 C313.440061,89.3894625 311.813949,88.7127009 310.036326,88.7127009 L310.036326,88.9147361 L263.474883,88.9147361 L263.474883,7.10395638 C263.474883,5.32634358 262.848676,3.75072502 261.555855,2.45791478 C260.263045,1.16510454 258.636933,0.488394117 256.85931,0.488394117 L256.85931,0.488394117 Z M437.853061,0.488394117 C436.075438,0.488394117 434.449326,1.16510454 433.156516,2.45791478 C431.863706,3.75072502 431.237499,5.32634358 431.237499,7.10395638 L431.237499,94.7222497 C431.237499,98.7623393 434.46953,101.842839 438.509568,101.842839 C442.549606,101.842839 445.781637,98.6107873 445.781637,94.5708001 L445.781637,63.3615329 L474.364908,63.3615329 C479.859364,63.3615329 484.384205,63.1796705 487.293041,65.2805089 C490.363464,67.3813473 492.635986,70.4618465 494.413609,74.0170721 C496.191222,77.7338849 496.989133,83.4202593 496.989133,91.3387489 L496.989133,95.1768033 C496.989133,97.1160545 497.67594,98.7421665 498.807142,99.8733793 C499.938355,101.004592 501.513974,101.640906 503.453194,101.640906 C505.392415,101.640906 507.00843,101.014627 508.30124,99.7218273 C509.594051,98.4290273 510.270761,96.9645025 510.270761,95.0252513 L510.270761,88.9147361 C510.270761,82.4506337 509.291049,76.4310497 507.190231,70.9365729 C504.281395,62.6949089 499.089951,57.7155041 492.141087,55.9379425 C498.605148,53.6755169 503.301693,50.1303265 506.533724,45.2823214 C509.604147,40.4342753 511.230269,35.232724 511.230269,29.5766702 C511.230269,20.8501934 508.139643,13.9013192 501.837179,8.56847094 C495.049912,2.91241718 485.040712,0.488394117 471.789384,0.488394117 L437.853061,0.488394117 L437.853061,0.488394117 Z M445.933138,14.5780296 L470.173368,14.5780296 C479.707863,14.5780296 486.656727,16.0021371 491.181578,19.0725704 C494.898412,21.8197985 496.686131,25.7083361 496.686131,31.0411848 C496.686131,36.6972385 494.252001,41.060482 489.565563,43.9693076 C484.879114,47.0397409 478.586757,48.5143521 470.829875,48.5143521 L445.933138,48.5143521 L445.933138,14.5780296 L445.933138,14.5780296 Z" fill="#2B2A29"></path>
	</g>
</svg>
